X:533
T:B533-  Wully and Georgy
S:Ackroyd tune, c 1700.
Q:1/4=120
L:1/4
M:3/4
K:B phrygian
G(G/4A/4)B/ A/G/|(c/4A3/4) (A/4B/4)c/ B/A/|B3/4A/4 G/A/ B/c/|\
(d3/2e/D|G(G/4A/4)B/ (d/4B/4)(A/4G/4)|Ac/d/ e3/4f/4|\
g/e/ (d/4e/4)(d/4B/4) (A/4B/4)(A/4G/4)|\
(G3/2A/)B||c3/4d/4 e/d/ g/d/|B3/4c/4 e/B/ e/d/|\
B3/4A/4 B/c/ d/G/|FAA3/4D/4|D3/2E/ D/B,/|G3/2E/ D/B,/|\
d3/2B/ A/G/|G3/2A/B|]

